markets/FB.svg

<svg width="42" height="42" viewBox="0 0 42 42" fill="none" xmlns="http://www.w3.org/2000/svg">
<path d="M42 21C42 9.40201 32.598 0 21 0C9.40201 0 0 9.40201 0 21C0 31.4817 7.67939 40.1695 17.7188 41.7449V27.0703H12.3867V21H17.7188V16.3735C17.7188 11.1103 20.8539 8.20314 25.6508 8.20314C27.9484 8.20314 30.3516 8.61328 30.3516 8.61328V13.7813H27.7035C25.0948 13.7813 24.2813 15.4 24.2813 17.0608V21H30.1055L29.1744 27.0703H24.2812V41.7449C34.3206 40.1695 42 31.4817 42 21" fill="#1877F2"/>
<path d="M29.1744 27.0703L30.1055 21H24.2812V17.0607C24.2812 15.4 25.0948 13.7812 27.7035 13.7812H30.3516V8.61327C30.3516 8.61327 27.9483 8.20312 25.6507 8.20312C20.8539 8.20312 17.7187 11.1103 17.7187 16.3734V21H12.3867V27.0703H17.7187V41.7449C18.8042 41.915 19.9013 42.0003 21 42C22.1163 42 23.2121 41.9126 24.2812 41.7449V27.0703H29.1744Z" fill="white"/>
</svg>

<svg xmlns="http://www.w3.org/2000/svg" width="42" height="42" fill="none"><path fill="#1877F2" d="M42 21C42 9.402 32.598 0 21 0S0 9.402 0 21c0 10.482 7.68 19.17 17.719 20.745V27.07h-5.332V21h5.332v-4.627c0-5.263 3.135-8.17 7.932-8.17 2.297 0 4.7.41 4.7.41v5.168h-2.648c-2.608 0-3.422 1.619-3.422 3.28V21h5.825l-.932 6.07h-4.893v14.675C34.321 40.17 42 31.482 42 21"/><path fill="#fff" d="m29.174 27.07.931-6.07h-5.824v-3.94c0-1.66.814-3.279 3.422-3.279h2.649V8.613s-2.404-.41-4.701-.41c-4.797 0-7.932 2.907-7.932 8.17V21h-5.332v6.07h5.332v14.675a21.158 21.158 0 0 0 6.562 0V27.07h4.893Z"/></svg>
